X: 40117
T: Tide On The Mudflats
R: reel
M: 4/4
K: Dmajor
|:AGFE BEEF|GEBE FDDG|GFED ADDE|FDAD FDDG|BEEF FGAB|
fdad fddA|D2 DF GABd|cBAG FD GF|AEEG EBEG|FEEG FGAB:|
|:efga beef|gebe fddg|bagf feeb|fdAD FDDA|
D2 DF GABd|cBAG FD E2|AEEG EBEG|1 GEBE GEEA:|2 GFED DE3||

